outputs/icons/editor/numbered_list_sharp.svg

<svg xmlns="http://www.w3.org/2000/svg" width="1200" height="1200" fill="none"><g clip-path="url(#a)"><path fill="#000" d="M100 850h100v25h-50v50h50v25H100v50h150V800H100zm50-450h50V200H100v50h50zm-50 150h90l-90 105v45h150v-50h-90l90-105v-45H100zm250-300v100h700V250zm0 700h700V850H350zm0-300h700V550H350z"/></g><defs><clipPath id="a"><path fill="#fff" d="M0 0h1200v1200H0z"/></clipPath></defs></svg>

<svg width="1200" height="1200" viewBox="0 0 1200 1200" fill="none" xmlns="http://www.w3.org/2000/svg"><g clip-path="url(#clip0_238_3265)"><path d="M100 850H200V875H150V925H200V950H100V1000H250V800H100V850ZM150 400H200V200H100V250H150V400ZM100 550H190L100 655V700H250V650H160L250 545V500H100V550ZM350 250V350H1050V250H350ZM350 950H1050V850H350V950ZM350 650H1050V550H350V650Z" fill="#1D1E23"/></g><defs><clipPath id="clip0_238_3265"><path width="24" fill="white" d="M0 0H1200V1200H0V0z"/></clipPath></defs></svg>
